modules/hawcons-stroke/icons/compass-east.svg

<?xml version="1.0" encoding="UTF-8" standalone="no"?>
<svg width="32px" height="32px" viewBox="0 0 32 32" version="1.1" xmlns="http://www.w3.org/2000/svg" xmlns:xlink="http://www.w3.org/1999/xlink" xmlns:sketch="http://www.bohemiancoding.com/sketch/ns">
    <!-- Generator: Sketch 3.0.3 (7891) - http://www.bohemiancoding.com/sketch -->
    <title>icon 55 compass east</title>
    <desc>Created with Sketch.</desc>
    <defs></defs>
    <g id="Page-1" stroke="none" stroke-width="1" fill="none" fill-rule="evenodd" sketch:type="MSPage">
        <g id="icon-55-compass-east" sketch:type="MSArtboardGroup" fill="#929292">
            <path d="M29,16 C29,23.1797021 23.1797021,29 16,29 C8.8202979,29 3,23.1797021 3,16 C3,8.8202979 8.8202979,3 16,3 C23.1797021,3 29,8.8202979 29,16 L29,16 Z M28,16 C28,22.6274173 22.6274173,28 16,28 C9.37258267,28 4,22.6274173 4,16 C4,9.37258267 9.37258267,4 16,4 C22.6274173,4 28,9.37258267 28,16 L28,16 Z M13,16 C13,17.6568542 14.3368622,19 16,19 C18,19 25,16 25,16 C25,16 18,13 16,13 C14.3431458,13 13,14.3465171 13,16 L13,16 Z M18,16 C18,17.1045696 17.1045696,18 16,18 C14.8954304,18 14,17.1045696 14,16 C14,14.8954304 14.8954304,14 16,14 C17.1045696,14 18,14.8954304 18,16 L18,16 Z" id="compass-east" sketch:type="MSShapeGroup"></path>
        </g>
    </g>
</svg>

<svg width="32" height="32" viewBox="0 0 32 32" xmlns="http://www.w3.org/2000/svg"><path d="M29 16c0 7.18-5.82 13-13 13S3 23.18 3 16 8.82 3 16 3s13 5.82 13 13zm-1 0c0 6.627-5.373 12-12 12S4 22.627 4 16 9.373 4 16 4s12 5.373 12 12zm-15 0c0 1.657 1.337 3 3 3 2 0 9-3 9-3s-7-3-9-3c-1.657 0-3 1.347-3 3zm5 0a2 2 0 1 1-4 0 2 2 0 0 1 4 0z" fill="#929292" fill-rule="evenodd"/></svg>
